X:1
T:Abt, 66.66.888
T:Franz Wilhelm Abt (1819-1885)
T:Abt, 66.66.888
T:Public Domain
C:Franz Wilhelm Abt (1819-1885)
Z:Public Domain
%%score ( 1 2 ) ( 3 4 )
L:1/8
M:6/8
K:D
V:1 treble 
V:2 treble 
V:3 bass 
V:4 bass 
V:1
 x6 |: [DF]>[C^E][DF] [DG]2 [DF] | [DB]3- [DB]2 [DB] | [CE]2 [DF] [EG]2 [CE] | [DA]3- [DA]2 [DA] | %5
 ([DF]>[C^E])[DF] [DG]2 [DF] | [Fd]3- [Fd]2 [Fd] | [Fc]2 F [^E^G]2 [EA] | F6 | E^DE [EA]2 [F=d] | %10
 (E>D)E [DA]3 | [GB][Gc][Gd] [DE]2 [DE] | (G>F)[CE] D3 | [DB][Ec][=Fd] [^Fd]2 [DF] | %14
 [CA]3- (AE)[CF] | D6 [DF] :| D6 |] %17
V:2
 x6 |: x6 | x6 | x6 | x6 | x6 | x6 | x2 F x3 | F6 | E^DE x3 | E2 E x3 | x6 | C2 D3 x | x6 | %14
 x3 C2 x | D6 x :| D6 |] %17
V:3
 x6 |: [D,A,]>[D,^G,][D,A,] [D,B,]2 [D,A,] | [G,,G,]3- [G,,G,]2 [G,,E,] | %3
 [A,,A,]2 [A,,A,] [A,,A,]2 [A,,G,] | [D,F,]3- [D,F,]2 [D,F,] | %5
 ([D,A,]>[D,^G,])[D,A,] [D,B,]2 [D,A,] | [B,,B,]3- [B,,B,]2 [B,,B,] | %7
 [C,A,]2 [C,A,] [B,,B,]2 [C,C] | [F,A,]6 | [^G,B,][F,A,][G,B,] [A,C]2 [A,D] | %10
 [G,B,]2 [G,B,] [F,A,]3 | [G,D][G,C][G,B,] [G,B,]2 [G,B,] | (B,>A,)[A,,G,] [D,F,]3 | %13
 [G,D][G,C][^G,B,] A,2 [A,,A,] | [A,,E,]3- (E,G,)[A,,A,] | [D,F,]6 [D,A,] :| [D,F,]6 |] %17
V:4
 x6 |: x6 | x6 | x6 | x6 | x6 | x6 | x6 | x6 | x6 | x6 | x6 | A,,2 x4 | x3 A,2 x | x3 A,,2 x | %15
 x7 :| x6 |] %17

